UI/Travel-Transport-Tracking/SVG/taxi_outline_24px.svg

<svg width="24" height="24" viewBox="0 0 24 24" fill="none" xmlns="http://www.w3.org/2000/svg">
<path d="M16.9301 10L19.2601 13.18L19.9701 14.18V19H18.0001V17H6.00005V19H4.00005V14.16L4.71005 13.16L7.00005 10H16.8901H16.9301ZM16.8901 8H7.07005C6.74776 7.99277 6.42849 8.06357 6.13945 8.20634C5.85042 8.34912 5.60018 8.55965 5.41005 8.82L4.55005 10H2.00005V12H3.10005L2.33005 13.06C2.11312 13.348 1.99714 13.6995 2.00005 14.06V19C2.00005 19.5304 2.21077 20.0391 2.58584 20.4142C2.96091 20.7893 3.46962 21 4.00005 21H7.00005C7.26527 21 7.51962 20.8946 7.70716 20.7071C7.8947 20.5196 8.00005 20.2652 8.00005 20V19H16.0001V20C16.0001 20.2652 16.1054 20.5196 16.2929 20.7071C16.4805 20.8946 16.7348 21 17.0001 21H20.0001C20.5305 21 21.0392 20.7893 21.4143 20.4142C21.7893 20.0391 22.0001 19.5304 22.0001 19V14.06C22.003 13.6995 21.887 13.348 21.6701 13.06L20.9001 12H22.0001V10H19.4501L18.5901 8.82C18.3999 8.55965 18.1497 8.34912 17.8607 8.20634C17.5716 8.06357 17.2524 7.99277 16.9301 8H16.8901ZM16.4601 13H7.46005L6.00005 15H18.0001L16.4601 13ZM15.0001 4H9.00005V6H15.0001V4Z" fill="#0F1621"/>
</svg>

<svg xmlns="http://www.w3.org/2000/svg" width="24" height="24" viewBox="0 0 24 24"><rect width="24" height="24" style="fill:none"/><path d="M16.93,10h0l2.33,3.18.71,1V19H18V17H6v2H4V14.16l.71-1L7,10h9.89m0-2H7.07a2,2,0,0,0-1.66.82L4.55,10H2v2H3.1l-.77,1.06a1.64,1.64,0,0,0-.33,1V19a2,2,0,0,0,2,2H7a1,1,0,0,0,1-1V19h8v1a1,1,0,0,0,1,1h3a2,2,0,0,0,2-2V14.06a1.64,1.64,0,0,0-.33-1L20.9,12H22V10H19.45l-.86-1.18A2,2,0,0,0,16.93,8Zm-.43,5h-9L6,15H18ZM15,4H9V6h6Z"/></svg>
